X: 1
T:Promenade, The
R:slip jig
D:Tommy Keane & Jacqueline McCarthy: The Wind among the Reeds.
Z:id:hn-slipjig-36
M:9/8
K:Ador
e2A A2G E2D|E2A A2B c2d|e2A A2G E2D|E2G G2F G2d:|
|:e2a a2g a2g|e2a a2a g2e|d2g g2f g2g|a2f g2e d2g:|
